X: 1
T: Jimmy's March
C: Jay Gilbert
N: (For Jimmy Devine - 02/22/1953 - 06/07/2021)
S: Posted on youtube (Old Time Music in New England) 2021-07-23
R: reel
Z: 2021 John Chambers <jc:trillian.mit.edu>
M: C|
L: 1/8
K: Ador
ED | EA AB c2 BA | .e2 A2 A3 D | EA AB c2 BA | G/F/E FD E2 || ED | EA AB c2 BA |
Bd ef g2 ag | f2 f/g/a gf ed | .e2 A2 A2 :: z2 | ea ab ag ed | cd ef g2 fe |
dg ga ge dc | .B2 G2 G2 || FG | EA AB c2 BA | (B/^c/d) ef g2 ag | f2 fa gf ed | .e2 A2 A2 :|
